X: 3
T:Johnny Muise's Reel
M:4/4
L:1/8
C:Jerry Holland
S:Cape Breton
R:Reel
K:A
af|"A"ec c/c/c BcAB|"A"c2Bc "D"BAFA|"A"AE E/E/E "F#M"Acec|"Bm7"dfaf "E7"
edcd|!
"A"ec c/c/c BcAB|"A"c2Bc "D"BAFA|"A"AE E/E/E "F#M"Acec|"E7"BABc "A"A2:|!
|:cd|"A"ea a/a/a "A7"a2 ga|"D"baga fedf|"A"ec c/c/c "F#m"acec|"Bm7"fedc
"E7"Bcdf| 
"A"ea a/a/a "A7"a2 ga|"D"baga fedf|"A"ec c/c/c "F#m"acec|"E7"BdcB "A"A2:
||
